src/components/00-materials/images-raw/Employee Transition.svg

<svg width="96" height="96" viewBox="0 0 96 96" fill="none" xmlns="http://www.w3.org/2000/svg">
<path d="M42.0001 28.7201H32.1201C27.7301 28.7201 24.4401 32.0401 24.4401 32.0401V39.7901C24.4401 47.1301 28.8301 53.0801 36.5001 53.0801C44.1701 53.0801 48.5601 47.1301 48.5601 39.7901V25.3901C48.5601 25.3901 45.2701 28.7201 42.0001 28.7201Z" stroke="#00008F" stroke-width="2" stroke-linecap="round" stroke-linejoin="round"/>
<path d="M17.87 26.8C17.8595 24.7357 18.2557 22.6894 19.036 20.7781C19.8163 18.8669 20.9654 17.128 22.4177 15.6608C23.87 14.1937 25.5971 13.0269 27.5003 12.2272C29.4035 11.4275 31.4456 11.0105 33.51 11.0001H35.91C38.681 10.9615 41.4126 11.6585 43.8264 13.02C46.2401 14.3814 48.2497 16.3587 49.65 18.7501C50.3856 18.7056 51.1221 18.8186 51.8105 19.0815C52.4989 19.3443 53.1233 19.7511 53.6419 20.2745C54.1606 20.7979 54.5616 21.4259 54.8183 22.1167C55.0749 22.8074 55.1812 23.545 55.13 24.2801V44.1301C55.1059 45.6943 55.5001 47.2366 56.2719 48.5974C57.0437 49.9582 58.1651 51.088 59.52 51.87C58.847 53.231 57.8622 54.414 56.6459 55.3227C55.4296 56.2315 54.016 56.8404 52.52 57.1L50.78 57.39M28.83 50.42V56.4001M44.17 50.42V56.4001M44.17 56.48L53.06 57.87C56.401 58.4024 59.4412 60.1125 61.631 62.6912C63.8209 65.2699 65.0159 68.547 65 71.93V77.1001C65.0053 78.126 64.6527 79.1217 64.0029 79.9157C63.3531 80.7097 62.4468 81.2523 61.44 81.4501L49.76 83.7201C41.0027 85.4301 31.9973 85.4301 23.24 83.7201L11.56 81.4501C10.5533 81.2523 9.64697 80.7097 8.99717 79.9157C8.34738 79.1217 7.99476 78.126 8.00003 77.1001V71.93C7.98415 68.547 9.17916 65.2699 11.369 62.6912C13.5589 60.1125 16.5991 58.4024 19.94 57.87L28.83 56.48" stroke="#00008F" stroke-width="2" stroke-linecap="round" stroke-linejoin="round"/>
<path d="M24.44 57.17L27.59 64.06C28.3806 65.7564 29.639 67.1919 31.2174 68.1977C32.7957 69.2035 34.6284 69.7378 36.5 69.7378C38.3716 69.7378 40.2043 69.2035 41.7827 68.1977C43.361 67.1919 44.6194 65.7564 45.41 64.06L48.75 57.2M20.06 77.27V82.98M52.94 77.27V82.98M22.25 57.39L20.51 57.1C19.014 56.8404 17.6005 56.2315 16.3841 55.3227C15.1678 54.4139 14.1831 53.231 13.51 51.87C14.865 51.088 15.9863 49.9581 16.7582 48.5973C17.53 47.2365 17.9242 45.6942 17.9 44.13V26.46M76 47V40.45H64V29.55H76V23L88 35L76 47Z" stroke="#00008F" stroke-width="2" stroke-linecap="round" stroke-linejoin="round"/>
</svg>

<svg width="96" height="96" viewBox="0 0 96 96" fill="none" xmlns="http://www.w3.org/2000/svg"><path d="M42 28.72h-9.88c-4.39 0-7.68 3.32-7.68 3.32v7.75c0 7.34 4.39 13.29 12.06 13.29 7.67 0 12.06-5.95 12.06-13.29v-14.4s-3.29 3.33-6.56 3.33z" stroke="#00008F" stroke-width="2" stroke-linecap="round" stroke-linejoin="round"/><path d="M17.87 26.8A15.72 15.72 0 0133.51 11h2.4a15.67 15.67 0 0113.74 7.75 5.179 5.179 0 015.48 5.53v19.85a8.781 8.781 0 004.39 7.74 9.649 9.649 0 01-7 5.23l-1.74.29m-21.95-6.97v5.98m15.34-5.98v5.98m0 .08l8.89 1.39A14.17 14.17 0 0165 71.93v5.17a4.41 4.41 0 01-3.56 4.35l-11.68 2.27a69.19 69.19 0 01-26.52 0l-11.68-2.27A4.41 4.41 0 018 77.1v-5.17a14.17 14.17 0 0111.94-14.06l8.89-1.39" stroke="#00008F" stroke-width="2" stroke-linecap="round" stroke-linejoin="round"/><path d="M24.44 57.17l3.15 6.89a9.83 9.83 0 0017.82 0l3.34-6.86M20.06 77.27v5.71m32.88-5.71v5.71M22.25 57.39l-1.74-.29a9.65 9.65 0 01-7-5.23 8.78 8.78 0 004.39-7.74V26.46M76 47v-6.55H64v-10.9h12V23l12 12-12 12z" stroke="#00008F" stroke-width="2" stroke-linecap="round" stroke-linejoin="round"/></svg>
